X:1
T:Angeline the Baker - D
M:4/4
K:D
|:"D"A2B2 d3A | B2 d4 dB | A2B2 "G"dABd| "A"A2>B2 A2dB |
|: "D"a2f2 e2de | f2e2 d2fg | a2f2 e2d2 | "Bm"B3B B2fg |

